lib/svgs/unread.svg

<?xml version="1.0" encoding="UTF-8"?>
<svg width="16px" height="16px" viewBox="0 0 16 16" version="1.1" xmlns="http://www.w3.org/2000/svg" xmlns:xlink="http://www.w3.org/1999/xlink">
    <!-- Generator: sketchtool 51.3 (57544) - http://www.bohemiancoding.com/sketch -->
    <title>unread</title>
    <desc>Created with sketchtool.</desc>
    <defs></defs>
    <g id="Icons" stroke="none" stroke-width="1" fill="none" fill-rule="evenodd">
        <g id="Deprecated" transform="translate(-83.000000, -359.000000)" fill="#000000" fill-rule="nonzero">
            <g id="unread" transform="translate(83.000000, 359.000000)">
                <path d="M6.643094,2.51875365 C6.52636072,2.30532717 6.46000004,2.06041325 6.46000004,1.79999995 C6.46000004,0.971572828 7.13157291,0.299999952 7.96000004,0.299999952 C8.78842716,0.299999952 9.46000004,0.971572828 9.46000004,1.79999995 C9.46000004,2.05280443 9.39746059,2.29100204 9.28700889,2.49996558 C11.5464341,3.08320263 13.2153846,5.16650772 13.2153846,7.64313721 L13.2153846,11.5647058 C13.2153846,12.4655269 13.4226622,13.0995524 13.8129783,13.4975218 C14.1853065,13.8771505 13.9163543,14.517647 13.3846154,14.517647 L9.63519307,14.517647 C9.31439004,15.2524154 8.59201554,15.7647052 7.75230769,15.7647052 C6.91259984,15.7647052 6.19022534,15.2524154 5.86942232,14.517647 L2.61538462,14.517647 C2.08364574,14.517647 1.8146935,13.8771505 2.18702167,13.4975218 C2.5773378,13.0995524 2.78461538,12.4655269 2.78461538,11.5647058 C2.78461538,11.233335 3.05324453,10.9647058 3.38461538,10.9647058 C3.71598623,10.9647058 3.98461538,11.233335 3.98461538,11.5647058 C3.98461538,12.2310058 3.88893562,12.8171151 3.69332856,13.317647 L12.3066714,13.317647 C12.1110644,12.8171151 12.0153846,12.2310058 12.0153846,11.5647058 L12.0153846,7.64313721 C12.0153846,5.37294122 10.2149999,3.53725485 8,3.53725485 C7.50599027,3.53725485 7.02515627,3.62822395 6.57394579,3.80357159 C6.26507815,3.92360252 5.91738717,3.77052011 5.79735624,3.46165248 C5.67732532,3.15278484 5.83040772,2.80509386 6.13927536,2.68506293 C6.30432927,2.62092033 6.47244311,2.56541998 6.643094,2.51875365 Z M7.96000004,2.29999995 C8.23614241,2.29999995 8.46000004,2.07614233 8.46000004,1.79999995 C8.46000004,1.52385758 8.23614241,1.29999995 7.96000004,1.29999995 C7.68385766,1.29999995 7.46000004,1.52385758 7.46000004,1.79999995 C7.46000004,2.07614233 7.68385766,2.29999995 7.96000004,2.29999995 Z M8.16666671,9.00000024 C7.61438193,9.00000024 7.16666667,8.55228497 7.16666667,8.0000002 C7.16666667,7.44771543 7.61438193,7.00000016 8.16666671,7.00000016 C8.71895148,7.00000016 9.16666675,7.44771543 9.16666675,8.0000002 C9.16666675,8.55228497 8.71895148,9.00000024 8.16666671,9.00000024 Z M4.83333337,9.00000024 C4.2810486,9.00000024 3.83333333,8.55228497 3.83333333,8.0000002 C3.83333333,7.44771543 4.2810486,7.00000016 4.83333337,7.00000016 C5.38561814,7.00000016 5.83333341,7.44771543 5.83333341,8.0000002 C5.83333341,8.55228497 5.38561814,9.00000024 4.83333337,9.00000024 Z M1.50000004,9.00000024 C0.947715268,9.00000024 0.5,8.55228497 0.5,8.0000002 C0.5,7.44771543 0.947715268,7.00000016 1.50000004,7.00000016 C2.05228481,7.00000016 2.50000008,7.44771543 2.50000008,8.0000002 C2.50000008,8.55228497 2.05228481,9.00000024 1.50000004,9.00000024 Z"></path>
            </g>
        </g>
    </g>
</svg>

<svg xmlns="http://www.w3.org/2000/svg" viewBox="0 0 16 16">
    <path d="M6.643 2.519A1.5 1.5 0 1 1 9.287 2.5a5.292 5.292 0 0 1 3.928 5.143v3.922c0 .9.208 1.535.598 1.933a.6.6 0 0 1-.428 1.02h-3.75a2.06 2.06 0 0 1-1.883 1.247 2.06 2.06 0 0 1-1.883-1.247H2.615a.6.6 0 0 1-.428-1.02c.39-.398.598-1.032.598-1.933a.6.6 0 0 1 1.2 0c0 .666-.096 1.252-.292 1.753h8.614a4.808 4.808 0 0 1-.292-1.753V7.643c0-2.27-1.8-4.106-4.015-4.106-.494 0-.975.091-1.426.267a.6.6 0 1 1-.435-1.119c.165-.064.333-.12.504-.166zM7.96 2.3a.5.5 0 1 0 0-1 .5.5 0 0 0 0 1zM8.167 9a1 1 0 1 1 0-2 1 1 0 0 1 0 2zM4.833 9a1 1 0 1 1 0-2 1 1 0 0 1 0 2zM1.5 9a1 1 0 1 1 0-2 1 1 0 0 1 0 2z"/>
</svg>
